icons/jsfiddle.svg

<?xml version="1.0" encoding="UTF-8" standalone="no"?>
<svg width="256px" height="175px" viewBox="0 0 256 175" version="1.1" xmlns="http://www.w3.org/2000/svg" xmlns:xlink="http://www.w3.org/1999/xlink">
    <defs></defs>
    <g stroke="none" stroke-width="1" fill="none" fill-rule="evenodd">
        <path d="M224.942987,79.4961013 C225.03437,77.9989873 225.169823,76.5148354 225.169823,74.9982785 C225.169823,33.5781266 191.073863,0 149.011443,0 C118.680304,0 92.5683038,17.4987342 80.3191899,42.7682025 C74.3761013,38.2314937 66.9358987,35.5029873 58.8411139,35.5029873 C39.436962,35.5029873 23.7075443,50.9926076 23.7075443,70.0986329 C23.7075443,73.6891139 24.2584304,77.1564557 25.2953924,80.4099241 C10.1687089,89.2694684 0,105.472 0,124.059544 C0,151.850127 22.6641013,174.391089 50.7852152,174.818835 L51.3814684,174.851241 L51.5888608,174.857722 L51.7962532,174.851241 L202.829772,174.851241 C203.750076,174.895959 204.650937,174.987342 205.584203,174.987342 C233.426633,174.987342 256,152.763949 256,125.342785 C256,104.674835 243.174076,86.9751899 224.942987,79.4961013 L224.942987,79.4961013 Z M68.7246582,136.580861 C63.6111392,131.95277 60.428962,126.340213 59.1522025,119.730228 C58.7309367,117.520203 58.5170633,115.206481 58.5170633,112.76962 C58.5105823,103.346228 61.939038,95.5554025 68.8089114,89.4191797 C75.6723038,83.2751797 84.4022278,80.1966987 95.0051646,80.2025316 C105.886785,80.2025316 116.146228,84.2726076 125.206684,92.4192405 C127.468557,94.4484456 129.652658,96.7355949 131.758987,99.2696709 L143.4112,112.97118 C145.427443,115.732091 147.592101,118.116456 149.827403,120.12557 C155.809377,125.498977 162.303352,128.187949 167.786937,128.187949 C172.452618,128.187949 176.347706,126.762127 179.484516,123.897519 C182.220152,121.292152 183.762633,118.174785 184.106127,114.564861 L184.17677,112.984142 C184.17677,111.415737 183.956415,109.931585 183.503392,108.538815 C182.758076,106.218613 181.389934,104.131078 179.407392,102.271028 C176.309468,99.3156861 172.407251,97.8574582 167.676759,97.8574582 C161.862643,97.8574582 156.113985,99.8147241 149.814441,105.91919 L139.496668,93.7867342 L138.239352,92.3803544 C147.26157,83.5402532 156.269529,80.2219747 168.395504,80.2219747 C179.141023,80.2219747 187.838542,83.2745316 194.494542,89.3673316 L194.643605,89.4898228 C201.409134,95.5690127 204.799352,103.430481 204.799352,113.074876 C204.799352,115.459889 204.585478,117.740557 204.164213,119.911696 C202.894582,126.438076 199.705924,131.998785 194.6112,136.606785 C189.608506,141.215433 183.503392,144.099484 176.295858,145.245975 C173.892699,145.628354 171.364456,145.822785 168.713722,145.822785 C157.585823,145.816304 147.293327,141.836962 138.440263,133.891241 C136.049418,131.739544 133.76162,129.302684 131.590481,126.567696 L119.93762,112.964051 C117.967392,110.235544 115.835139,107.876456 113.618633,105.880304 C107.64962,100.519858 101.071392,97.8373671 95.4329114,97.8373671 C93.683038,97.8373671 92.0433418,98.0441114 90.5138228,98.4530633 C87.9732658,99.1335696 85.7502785,100.390886 83.8318987,102.21918 C81.4857722,104.454481 80.0145823,107.028091 79.4312911,109.937418 C79.2368608,110.903089 79.1331646,111.914127 79.1396456,112.95757 C79.1396456,117.092456 80.6302785,120.631089 83.6115443,123.566987 L83.8383797,123.780861 C87.04,126.710278 90.9739747,128.168506 95.6403038,128.168506 C101.50562,128.168506 107.280203,126.198927 113.566785,120.041965 L123.832709,132.024709 L124.966886,133.392203 C115.595342,142.336 106.683949,145.719089 95.0246076,145.712608 C84.2855696,145.712608 75.5232405,142.666532 68.7246582,136.580861 L68.7246582,136.580861 Z" fill="#4679A4"></path>
    </g>
</svg>

<svg xmlns="http://www.w3.org/2000/svg" viewBox="0 0 256 174.987">
  <path fill="#4679a4" fill-rule="evenodd" d="M224.943 79.496c.091-1.497.227-2.981.227-4.498C225.17 33.578 191.074 0 149.01 0c-30.33 0-56.443 17.499-68.692 42.768a35.285 35.285 0 0 0-21.478-7.265c-19.404 0-35.133 15.49-35.133 34.596 0 3.59.55 7.057 1.587 10.31C10.17 89.27 0 105.473 0 124.06c0 27.791 22.664 50.332 50.785 50.76l.596.032.208.006.207-.006H202.83c.92.045 1.82.136 2.754.136 27.843 0 50.416-22.223 50.416-49.644 0-20.668-12.826-38.368-31.057-45.847zM68.725 136.581c-5.114-4.628-8.296-10.24-9.573-16.85a37.066 37.066 0 0 1-.635-6.961c-.006-9.424 3.422-17.215 10.292-23.35 6.863-6.145 15.593-9.223 26.196-9.217 10.882 0 21.141 4.07 30.202 12.216 2.262 2.03 4.446 4.317 6.552 6.85l11.652 13.702c2.016 2.761 4.181 5.145 6.416 7.155 5.982 5.373 12.476 8.062 17.96 8.062 4.666 0 8.56-1.426 11.698-4.29 2.735-2.606 4.278-5.723 4.621-9.333l.07-1.58c0-1.57-.22-3.053-.673-4.446-.745-2.32-2.113-4.408-4.096-6.268-3.098-2.955-7-4.414-11.73-4.414-5.814 0-11.563 1.958-17.863 8.062l-10.317-12.132-1.258-1.407c9.023-8.84 18.03-12.158 30.156-12.158 10.746 0 19.444 3.053 26.1 9.145l.149.123c6.765 6.079 10.155 13.94 10.155 23.585 0 2.385-.214 4.666-.635 6.837-1.27 6.526-4.458 12.087-9.553 16.695-5.003 4.608-11.108 7.492-18.315 8.639a48.23 48.23 0 0 1-7.582.577c-11.128-.006-21.42-3.986-30.274-11.932a60.052 60.052 0 0 1-6.85-7.323l-11.652-13.604c-1.97-2.728-4.103-5.088-6.32-7.084-5.968-5.36-12.547-8.043-18.185-8.043-1.75 0-3.39.207-4.92.616-2.54.68-4.763 1.938-6.681 3.766-2.346 2.235-3.817 4.81-4.4 7.718a14.828 14.828 0 0 0-.292 3.02c0 4.135 1.49 7.674 4.472 10.61l.226.214c3.202 2.93 7.136 4.388 11.802 4.388 5.866 0 11.64-1.97 17.927-8.127l10.266 11.983 1.134 1.367c-9.372 8.944-18.283 12.327-29.942 12.32-10.74 0-19.502-3.045-26.3-9.131z"/>
</svg>
